public/logo.svg

<?xml version="1.0" encoding="UTF-8"?>
<svg width="603.99mm" height="106.45mm" version="1.1" viewBox="0 0 2282.8 402.35" xml:space="preserve" xmlns="http://www.w3.org/2000/svg" xmlns:xlink="http://www.w3.org/1999/xlink"><defs><clipPath id="b"><path d="m0 2e3h2e3v-2e3h-2e3z"/></clipPath><clipPath id="a"><path d="m363.62 1150.7c-7.095-0.661-14.123-2.906-20.752-6.734l-86.861-50.145-86.862-50.15c-16.025-9.255-25.198-25.14-25.198-43.645 0-17.62 8.311-32.858 22.938-42.267 41.599 61.888 121.88 110.42 196.74 110.42v-39.133c-58.447 0-128.38-43.222-161.82-91.515l44.962-25.959c26.614 29.596 75.601 63.263 116.86 61.985v-39.888c-28.527-0.966-61.64-22.979-81.132-42.725l60.38-34.861c6.629-3.827 13.657-6.072 20.752-6.732 10.055-0.937 20.247 1.308 29.643 6.732 16.024 9.253 25.198 25.141 25.198 43.644v200.6c0 18.505-9.174 34.389-25.198 43.642-8.012 4.627-16.606 6.94-25.2 6.94-1.482 0-2.964-0.068-4.443-0.206"/></clipPath></defs><g transform="matrix(1.3333 0 0 -1.3333 -191.94 1534.5)"><g transform="translate(518.97 913.18)"><path d="m0 0v173.64h105.67v-17.115h-84.837v-61.021h72.183v-16.869h-72.183v-78.632z" fill="#1a1a1a"/></g><g clip-path="url(#b)"><g transform="translate(687.58 1021.6)"><path d="m0 0c-9.922 0-18.73-3.018-26.417-9.053-7.691-6.036-12.115-14.842-13.272-26.418h77.392c-0.495 11.081-4.298 19.761-11.411 26.046-7.111 6.284-15.874 9.425-26.292 9.425m0-111.38c-11.743 0-22.161 2.686-31.254 8.063-9.097 5.372-16.249 12.854-21.458 22.447-5.209 9.592-7.813 20.919-7.813 33.983 0 12.899 2.563 24.184 7.69 33.859 5.125 9.674 12.278 17.201 21.454 22.573 9.18 5.377 19.806 8.064 31.876 8.064 11.906 0 22.202-2.687 30.883-8.064 8.682-5.372 15.337-12.442 19.969-21.208 4.629-8.762 6.946-18.191 6.946-28.278 0-1.819-0.043-3.639-0.125-5.457-0.083-1.816-0.123-3.886-0.123-6.2h-97.983c0.498-9.429 2.689-17.241 6.574-23.442 3.888-6.202 8.766-10.875 14.634-14.015 5.872-3.141 12.115-4.714 18.73-4.714 8.6 0 15.792 1.986 21.581 5.952 5.786 3.972 10.005 9.344 12.651 16.126h20.586c-3.307-11.41-9.632-20.877-18.975-28.404-9.343-7.524-21.291-11.285-35.843-11.285" fill="#1a1a1a"/></g><g transform="translate(821.18 1021.6)"><path d="m0 0c-9.924 0-18.73-3.018-26.418-9.053-7.69-6.036-12.114-14.842-13.272-26.418h77.393c-0.495 11.081-4.298 19.761-11.412 26.046-7.11 6.284-15.873 9.425-26.291 9.425m0-111.38c-11.743 0-22.161 2.686-31.254 8.063-9.097 5.372-16.249 12.854-21.459 22.447-5.208 9.592-7.813 20.919-7.813 33.983 0 12.899 2.563 24.184 7.691 33.859 5.123 9.674 12.278 17.201 21.454 22.573 9.178 5.377 19.805 8.064 31.876 8.064 11.906 0 22.202-2.687 30.882-8.064 8.681-5.372 15.338-12.442 19.97-21.208 4.629-8.762 6.946-18.191 6.946-28.278 0-1.819-0.043-3.639-0.126-5.457-0.082-1.816-0.123-3.886-0.123-6.2h-97.983c0.498-9.429 2.689-17.241 6.575-23.442 3.887-6.202 8.765-10.875 14.634-14.015 5.871-3.141 12.115-4.714 18.73-4.714 8.598 0 15.791 1.986 21.581 5.952 5.786 3.972 10.005 9.344 12.651 16.126h20.586c-3.307-11.41-9.632-20.877-18.975-28.404-9.344-7.524-21.291-11.285-35.843-11.285" fill="#1a1a1a"/></g><g transform="translate(956.74 928.31)"><path d="m0 0c8.268 0 15.587 1.942 21.953 5.826 6.366 3.889 11.33 9.303 14.883 16.249 3.557 6.947 5.333 15.051 5.333 24.309 0 9.261-1.776 17.365-5.333 24.311-3.553 6.944-8.517 12.36-14.883 16.245-6.366 3.888-13.685 5.831-21.953 5.831-8.104 0-15.336-1.943-21.704-5.831-6.366-3.885-11.329-9.301-14.883-16.245-3.556-6.946-5.335-15.05-5.335-24.311 0-9.258 1.779-17.362 5.335-24.309 3.554-6.946 8.517-12.36 14.883-16.249 6.368-3.884 13.6-5.826 21.704-5.826m-2.232-18.109c-12.238 0-22.945 2.813-32.122 8.435-9.179 5.622-16.289 13.31-21.335 23.07-5.042 9.755-7.563 20.834-7.563 33.237 0 12.401 2.563 23.441 7.689 33.116 5.124 9.672 12.238 17.281 21.333 22.819 9.096 5.54 19.842 8.312 32.247 8.312 10.087 0 19.017-2.068 26.79-6.202s13.808-9.924 18.106-17.365v76.153h20.839v-178.6h-18.853l-1.986 20.341c-3.967-5.953-9.674-11.329-17.116-16.126-7.441-4.795-16.785-7.192-28.029-7.192" fill="#1a1a1a"/></g><g transform="translate(1085.7 1005)"><path d="m0 0h30.012c10.585 0 18.358 2.564 23.318 7.688 4.96 5.127 7.441 11.907 7.441 20.342 0 8.268-2.437 14.883-7.318 19.846-4.878 4.959-12.773 7.441-23.687 7.441h-29.766zm-31.753-91.78v173.64h63.751c13.89 0 25.343-2.355 34.355-7.068 9.012-4.714 15.753-11.081 20.218-19.1 4.465-8.021 6.697-16.91 6.697-26.666 0-10.586-2.771-20.259-8.311-29.023-5.54-8.765-14.181-15.132-25.924-19.102l35.97-72.678h-36.464l-32.248 68.462h-26.291v-68.462z" fill="#1a1a1a"/></g><g transform="translate(1254.9 1013.4)"><path d="m0 0c-7.772 0-14.638-2.188-20.59-6.57-5.954-4.383-9.756-11.04-11.408-19.971h61.266c-0.496 8.104-3.471 14.553-8.929 19.35-5.456 4.795-12.235 7.191-20.339 7.191m-0.249-103.19c-12.401 0-23.4 2.646-32.992 7.937-9.589 5.294-17.115 12.736-22.571 22.325-5.458 9.592-8.186 20.673-8.186 33.241 0 12.732 2.687 24.059 8.06 33.983 5.376 9.922 12.817 17.654 22.325 23.192 9.51 5.539 20.713 8.311 33.613 8.311 12.071 0 22.737-2.645 31.998-7.939 9.262-5.292 16.496-12.526 21.704-21.704 5.21-9.179 7.815-19.389 7.815-30.634 0-1.819-0.041-3.721-0.123-5.707-0.082-1.983-0.209-4.049-0.373-6.199h-93.518c0.662-9.593 4.012-17.117 10.047-22.575 6.038-5.458 13.353-8.185 21.952-8.185 6.451 0 11.865 1.447 16.248 4.343 4.383 2.89 7.65 6.655 9.797 11.285h32.248c-2.314-7.773-6.158-14.843-11.533-21.209-5.374-6.366-11.99-11.37-19.844-15.006-7.855-3.639-16.743-5.459-26.667-5.459" fill="#1a1a1a"/></g><g transform="translate(1357.5 913.18)"><path d="m0 0-35.968 123.04h31.504l21.331-88.556 24.807 88.556h35.224l24.807-88.556 21.58 88.556h31.501l-36.215-123.04h-32.992l-26.295 92.026-26.291-92.026z" fill="#1a1a1a"/></g><path d="m1527.8 1036.2h31.75v-123.04h-31.75zm15.873 19.098c-5.786 0-10.541 1.738-14.262 5.21-3.721 3.475-5.581 7.854-5.581 13.148 0 5.291 1.86 9.631 5.581 13.023 3.721 3.39 8.476 5.083 14.262 5.083 5.79 0 10.545-1.693 14.265-5.083 3.721-3.392 5.582-7.732 5.582-13.023 0-5.294-1.861-9.673-5.582-13.148-3.72-3.472-8.475-5.21-14.265-5.21" fill="#1a1a1a"/><g transform="translate(1585 913.18)"><path d="m0 0v123.04h28.031l2.48-20.837c3.805 7.275 9.302 13.065 16.498 17.363 7.191 4.3 15.668 6.451 25.424 6.451 15.213 0 27.039-4.797 35.473-14.388 8.432-9.592 12.651-23.646 12.651-42.168v-69.456h-31.753v66.479c0 10.582-2.151 18.685-6.45 24.308s-10.998 8.435-20.09 8.435c-8.931 0-16.249-3.144-21.953-9.428-5.707-6.282-8.558-15.047-8.558-26.292v-63.502z" fill="#1a1a1a"/></g><g transform="translate(1789.8 937.99)"><path d="m0 0c10.253 0 18.647 3.431 25.178 10.292 6.534 6.864 9.797 15.672 9.797 26.418 0 10.75-3.263 19.557-9.797 26.417-6.531 6.865-14.925 10.296-25.178 10.296-10.088 0-18.437-3.39-25.053-10.17-6.616-6.779-9.923-15.545-9.923-26.294s3.307-19.597 9.923-26.541c6.616-6.946 14.965-10.418 25.053-10.418m-6.698-27.783c-11.576 0-21.908 2.813-31.005 8.435-9.095 5.622-16.29 13.31-21.581 23.07-5.292 9.756-7.938 20.835-7.938 33.237 0 12.401 2.646 23.441 7.938 33.116 5.291 9.673 12.486 17.281 21.581 22.82 9.097 5.539 19.429 8.311 31.005 8.311 9.261 0 17.365-1.737 24.311-5.208 6.944-3.476 12.569-8.353 16.866-14.638v72.432h31.753v-178.6h-28.281l-3.472 17.611c-3.969-5.456-9.218-10.251-15.75-14.385-6.533-4.134-15.008-6.203-25.427-6.203" fill="#1a1a1a"/></g></g><g clip-path="url(#a)"><g transform="matrix(288 0 0 -310 140.23 1154)"><image transform="matrix(1,0,0,-1,0,1)" width="1" height="1" image-rendering="optimizeSpeed" preserveAspectRatio="none" xlink:href="data:image/png;base64,iVBORw0KGgoAAAANSUhEUgAAAJAAAACbCAYAAACNgRJ7AAAABHNCSVQICAgIfAhkiAAAAgtJREFUeJzt1MFtwjAAQFEn7T6dput01W6Ce4AUgzhU/QeE9J6EAsZJ7Ogr25xzDvin/dkL4LW9jzHG+Ph83gq2Mca2vASP79vlM+b1uN/Pmdd52zzPOcb39fzL+L6cc4zvd/c4/t+Xa/5pbIyxnc7Ht/Wap+v6ftf0aOy45oM9rfda97PdP5P7c5fjvjzXm/0+eO6Pxg9f3zc/vYFIBEQiIBIBkQiIREAkAiIREImASAREIiASAZEIiERAJAIiERCJgEgERCIgEgGRCIhEQCQCIhEQiYBIBEQiIBIBkQiIREAkAiIREImASAREIiASAZEIiERAJAIiERCJgEgERCIgEgGRCIhEQCQCIhEQiYBIBEQiIBIBkQiIREAkAiIREImASAREIiASAZEIiERAJAIiERCJgEgERCIgEgGRCIhEQCQCIhEQiYBIBEQiIBIBkQiIREAkAiIREImASAREIiASAZEIiERAJAIiERCJgEgERCIgEgGRCIhEQCQCIhEQiYBIBEQiIBIBkQiIREAkAiIREImASAREIiASAZEIiERAJAIiERCJgEgERCIgEgGRCIhEQCQCIhEQiYBIBEQiIBIBkQiIREAkAiIREImASAREIiASAZEIiERAJAIiERCJgEgERCIgEgGRCIhEQCQCIhEQiYBIBEQiIBIBkQiIREAkAiLZ5pzz2Yvgdf0AtF48L75q4acAAAAASUVORK5CYII="/></g></g></g></svg>

<?xml version="1.0" encoding="UTF-8" standalone="no"?>
<!-- Created with Inkscape (http://www.inkscape.org/) -->

<svg
   version="1.1"
   id="svg824"
   xml:space="preserve"
   width="603.98889mm"
   height="106.45491mm"
   viewBox="0 0 2282.7925 402.34925"
   sodipodi:docname="feedrewind.svg"
   inkscape:version="1.1.2 (b8e25be833, 2022-02-05)"
   xmlns:inkscape="http://www.inkscape.org/namespaces/inkscape"
   xmlns:sodipodi="http://sodipodi.sourceforge.net/DTD/sodipodi-0.dtd"
   xmlns:xlink="http://www.w3.org/1999/xlink"
   xmlns="http://www.w3.org/2000/svg"
   xmlns:svg="http://www.w3.org/2000/svg"><defs
     id="defs828"><clipPath
       clipPathUnits="userSpaceOnUse"
       id="clipPath844"><path
         d="M 0,2000 H 2000 V 0 H 0 Z"
         id="path842" /></clipPath><clipPath
       clipPathUnits="userSpaceOnUse"
       id="clipPath886"><path
         d="m 363.625,1150.675 c -7.095,-0.661 -14.123,-2.906 -20.752,-6.734 v 0 l -86.861,-50.145 -86.862,-50.15 c -16.025,-9.255 -25.198,-25.14 -25.198,-43.645 v 0 c 0,-17.62 8.311,-32.858 22.938,-42.267 v 0 c 41.599,61.888 121.881,110.42 196.735,110.42 v 0 -39.133 c -58.447,0 -128.38,-43.222 -161.825,-91.515 v 0 l 44.962,-25.959 c 26.614,29.596 75.601,63.263 116.863,61.985 v 0 -39.888 c -28.527,-0.966 -61.64,-22.979 -81.132,-42.725 v 0 l 60.38,-34.861 c 6.629,-3.827 13.657,-6.072 20.752,-6.732 v 0 c 10.055,-0.937 20.247,1.308 29.643,6.732 v 0 c 16.024,9.253 25.198,25.141 25.198,43.644 v 0 100.301 100.296 c 0,18.505 -9.174,34.389 -25.198,43.642 v 0 c -8.012,4.627 -16.606,6.94 -25.2,6.94 v 0 c -1.482,0 -2.964,-0.068 -4.443,-0.206"
         id="path884" /></clipPath></defs><sodipodi:namedview
     id="namedview826"
     pagecolor="#ffffff"
     bordercolor="#666666"
     borderopacity="1.0"
     inkscape:pageshadow="2"
     inkscape:pageopacity="0.0"
     inkscape:pagecheckerboard="0"
     showgrid="false"
     inkscape:zoom="0.47570607"
     inkscape:cx="579.13913"
     inkscape:cy="-1426.3009"
     inkscape:window-width="3840"
     inkscape:window-height="2050"
     inkscape:window-x="-12"
     inkscape:window-y="-12"
     inkscape:window-maximized="1"
     inkscape:current-layer="g830"
     units="mm"
     fit-margin-left="0"
     fit-margin-top="0"
     fit-margin-bottom="0"
     fit-margin-right="0"
     inkscape:document-units="mm" /><g
     id="g830"
     inkscape:groupmode="layer"
     inkscape:label="feedrewind logo ai"
     transform="matrix(1.3333333,0,0,-1.3333333,-191.936,1534.508)"><g
       id="g834"
       transform="translate(518.9692,913.1826)"><path
         d="M 0,0 V 173.637 H 105.674 V 156.522 H 20.837 V 95.501 H 93.02 V 78.632 H 20.837 V 0 Z"
         style="fill:#1a1a1a;fill-opacity:1;fill-rule:nonzero;stroke:none"
         id="path836" /></g><g
       id="g838"><g
         id="g840"
         clip-path="url(#clipPath844)"><g
           id="g846"
           transform="translate(687.5776,1021.5806)"><path
             d="m 0,0 c -9.922,0 -18.73,-3.018 -26.417,-9.053 -7.691,-6.036 -12.115,-14.842 -13.272,-26.418 H 37.703 C 37.208,-24.39 33.405,-15.71 26.292,-9.425 19.181,-3.141 10.418,0 0,0 m 0,-111.375 c -11.743,0 -22.161,2.686 -31.254,8.063 -9.097,5.372 -16.249,12.854 -21.458,22.447 -5.209,9.592 -7.813,20.919 -7.813,33.983 0,12.899 2.563,24.184 7.69,33.859 5.125,9.674 12.278,17.201 21.454,22.573 9.18,5.377 19.806,8.064 31.876,8.064 11.906,0 22.202,-2.687 30.883,-8.064 8.682,-5.372 15.337,-12.442 19.969,-21.208 4.629,-8.762 6.946,-18.191 6.946,-28.278 0,-1.819 -0.043,-3.639 -0.125,-5.457 -0.083,-1.816 -0.123,-3.886 -0.123,-6.2 h -97.983 c 0.498,-9.429 2.689,-17.241 6.574,-23.442 3.888,-6.202 8.766,-10.875 14.634,-14.015 5.872,-3.141 12.115,-4.714 18.73,-4.714 8.6,0 15.792,1.986 21.581,5.952 5.786,3.972 10.005,9.344 12.651,16.126 H 54.818 C 51.511,-83.096 45.186,-92.563 35.843,-100.09 26.5,-107.614 14.552,-111.375 0,-111.375"
             style="fill:#1a1a1a;fill-opacity:1;fill-rule:nonzero;stroke:none"
             id="path848" /></g><g
           id="g850"
           transform="translate(821.1841,1021.5806)"><path
             d="m 0,0 c -9.924,0 -18.73,-3.018 -26.418,-9.053 -7.69,-6.036 -12.114,-14.842 -13.272,-26.418 H 37.703 C 37.208,-24.39 33.405,-15.71 26.291,-9.425 19.181,-3.141 10.418,0 0,0 m 0,-111.375 c -11.743,0 -22.161,2.686 -31.254,8.063 -9.097,5.372 -16.249,12.854 -21.459,22.447 -5.208,9.592 -7.813,20.919 -7.813,33.983 0,12.899 2.563,24.184 7.691,33.859 5.123,9.674 12.278,17.201 21.454,22.573 9.178,5.377 19.805,8.064 31.876,8.064 11.906,0 22.202,-2.687 30.882,-8.064 8.681,-5.372 15.338,-12.442 19.97,-21.208 4.629,-8.762 6.946,-18.191 6.946,-28.278 0,-1.819 -0.043,-3.639 -0.126,-5.457 -0.082,-1.816 -0.123,-3.886 -0.123,-6.2 h -97.983 c 0.498,-9.429 2.689,-17.241 6.575,-23.442 3.887,-6.202 8.765,-10.875 14.634,-14.015 5.871,-3.141 12.115,-4.714 18.73,-4.714 8.598,0 15.791,1.986 21.581,5.952 5.786,3.972 10.005,9.344 12.651,16.126 H 54.818 C 51.511,-83.096 45.186,-92.563 35.843,-100.09 26.499,-107.614 14.552,-111.375 0,-111.375"
             style="fill:#1a1a1a;fill-opacity:1;fill-rule:nonzero;stroke:none"
             id="path852" /></g><g
           id="g854"
           transform="translate(956.7437,928.3145)"><path
             d="m 0,0 c 8.268,0 15.587,1.942 21.953,5.826 6.366,3.889 11.33,9.303 14.883,16.249 3.557,6.947 5.333,15.051 5.333,24.309 0,9.261 -1.776,17.365 -5.333,24.311 C 33.283,77.639 28.319,83.055 21.953,86.94 15.587,90.828 8.268,92.771 0,92.771 c -8.104,0 -15.336,-1.943 -21.704,-5.831 -6.366,-3.885 -11.329,-9.301 -14.883,-16.245 -3.556,-6.946 -5.335,-15.05 -5.335,-24.311 0,-9.258 1.779,-17.362 5.335,-24.309 3.554,-6.946 8.517,-12.36 14.883,-16.249 C -15.336,1.942 -8.104,0 0,0 m -2.232,-18.109 c -12.238,0 -22.945,2.813 -32.122,8.435 -9.179,5.622 -16.289,13.31 -21.335,23.07 -5.042,9.755 -7.563,20.834 -7.563,33.237 0,12.401 2.563,23.441 7.689,33.116 5.124,9.672 12.238,17.281 21.333,22.819 9.096,5.54 19.842,8.312 32.247,8.312 10.087,0 19.017,-2.068 26.79,-6.202 7.773,-4.134 13.808,-9.924 18.106,-17.365 v 76.153 H 63.752 V -15.132 H 44.899 L 42.913,5.209 C 38.946,-0.744 33.239,-6.12 25.797,-10.917 18.356,-15.712 9.012,-18.109 -2.232,-18.109"
             style="fill:#1a1a1a;fill-opacity:1;fill-rule:nonzero;stroke:none"
             id="path856" /></g><g
           id="g858"
           transform="translate(1085.7334,1004.9624)"><path
             d="m 0,0 h 30.012 c 10.585,0 18.358,2.564 23.318,7.688 4.96,5.127 7.441,11.907 7.441,20.342 0,8.268 -2.437,14.883 -7.318,19.846 -4.878,4.959 -12.773,7.441 -23.687,7.441 H 0 Z M -31.753,-91.78 V 81.857 h 63.751 c 13.89,0 25.343,-2.355 34.355,-7.068 9.012,-4.714 15.753,-11.081 20.218,-19.1 4.465,-8.021 6.697,-16.91 6.697,-26.666 C 93.268,18.437 90.497,8.764 84.957,0 79.417,-8.765 70.776,-15.132 59.033,-19.102 L 95.003,-91.78 H 58.539 L 26.291,-23.318 H 0 V -91.78 Z"
             style="fill:#1a1a1a;fill-opacity:1;fill-rule:nonzero;stroke:none"
             id="path860" /></g><g
           id="g862"
           transform="translate(1254.9355,1013.394)"><path
             d="m 0,0 c -7.772,0 -14.638,-2.188 -20.59,-6.57 -5.954,-4.383 -9.756,-11.04 -11.408,-19.971 h 61.266 c -0.496,8.104 -3.471,14.553 -8.929,19.35 C 14.883,-2.396 8.104,0 0,0 m -0.249,-103.189 c -12.401,0 -23.4,2.646 -32.992,7.937 -9.589,5.294 -17.115,12.736 -22.571,22.325 -5.458,9.592 -8.186,20.673 -8.186,33.241 0,12.732 2.687,24.059 8.06,33.983 5.376,9.922 12.817,17.654 22.325,23.192 9.51,5.539 20.713,8.311 33.613,8.311 12.071,0 22.737,-2.645 31.998,-7.939 9.262,-5.292 16.496,-12.526 21.704,-21.704 5.21,-9.179 7.815,-19.389 7.815,-30.634 0,-1.819 -0.041,-3.721 -0.123,-5.707 -0.082,-1.983 -0.209,-4.049 -0.373,-6.199 h -93.518 c 0.662,-9.593 4.012,-17.117 10.047,-22.575 6.038,-5.458 13.353,-8.185 21.952,-8.185 6.451,0 11.865,1.447 16.248,4.343 4.383,2.89 7.65,6.655 9.797,11.285 h 32.248 c -2.314,-7.773 -6.158,-14.843 -11.533,-21.209 -5.374,-6.366 -11.99,-11.37 -19.844,-15.006 -7.855,-3.639 -16.743,-5.459 -26.667,-5.459"
             style="fill:#1a1a1a;fill-opacity:1;fill-rule:nonzero;stroke:none"
             id="path864" /></g><g
           id="g866"
           transform="translate(1357.5,913.1826)"><path
             d="m 0,0 -35.968,123.035 h 31.504 l 21.331,-88.556 24.807,88.556 h 35.224 l 24.807,-88.556 21.58,88.556 h 31.501 L 118.571,0 H 85.579 L 59.284,92.026 32.993,0 Z"
             style="fill:#1a1a1a;fill-opacity:1;fill-rule:nonzero;stroke:none"
             id="path868" /></g><path
           d="m 1527.808,1036.218 h 31.75 V 913.183 h -31.75 z m 15.873,19.098 c -5.786,0 -10.541,1.738 -14.262,5.21 -3.721,3.475 -5.581,7.854 -5.581,13.148 0,5.291 1.86,9.631 5.581,13.023 3.721,3.39 8.476,5.083 14.262,5.083 5.79,0 10.545,-1.693 14.265,-5.083 3.721,-3.392 5.582,-7.732 5.582,-13.023 0,-5.294 -1.861,-9.673 -5.582,-13.148 -3.72,-3.472 -8.475,-5.21 -14.265,-5.21"
           style="fill:#1a1a1a;fill-opacity:1;fill-rule:nonzero;stroke:none"
           id="path870" /><g
           id="g872"
           transform="translate(1585.0439,913.1826)"><path
             d="m 0,0 v 123.035 h 28.031 l 2.48,-20.837 c 3.805,7.275 9.302,13.065 16.498,17.363 7.191,4.3 15.668,6.451 25.424,6.451 15.213,0 27.039,-4.797 35.473,-14.388 8.432,-9.592 12.651,-23.646 12.651,-42.168 V 0 H 88.804 v 66.479 c 0,10.582 -2.151,18.685 -6.45,24.308 -4.299,5.623 -10.998,8.435 -20.09,8.435 -8.931,0 -16.249,-3.144 -21.953,-9.428 C 34.604,83.512 31.753,74.747 31.753,63.502 V 0 Z"
             style="fill:#1a1a1a;fill-opacity:1;fill-rule:nonzero;stroke:none"
             id="path874" /></g><g
           id="g876"
           transform="translate(1789.8145,937.9883)"><path
             d="m 0,0 c 10.253,0 18.647,3.431 25.178,10.292 6.534,6.864 9.797,15.672 9.797,26.418 0,10.75 -3.263,19.557 -9.797,26.417 C 18.647,69.992 10.253,73.423 0,73.423 c -10.088,0 -18.437,-3.39 -25.053,-10.17 -6.616,-6.779 -9.923,-15.545 -9.923,-26.294 0,-10.749 3.307,-19.597 9.923,-26.541 C -18.437,3.472 -10.088,0 0,0 m -6.698,-27.783 c -11.576,0 -21.908,2.813 -31.005,8.435 -9.095,5.622 -16.29,13.31 -21.581,23.07 -5.292,9.756 -7.938,20.835 -7.938,33.237 0,12.401 2.646,23.441 7.938,33.116 5.291,9.673 12.486,17.281 21.581,22.82 9.097,5.539 19.429,8.311 31.005,8.311 9.261,0 17.365,-1.737 24.311,-5.208 6.944,-3.476 12.569,-8.353 16.866,-14.638 v 72.432 H 66.232 V -24.806 H 37.951 L 34.479,-7.195 C 30.51,-12.651 25.261,-17.446 18.729,-21.58 12.196,-25.714 3.721,-27.783 -6.698,-27.783"
             style="fill:#1a1a1a;fill-opacity:1;fill-rule:nonzero;stroke:none"
             id="path878" /></g></g></g><g
       id="g880"><g
         id="g882"
         clip-path="url(#clipPath886)"><g
           id="g888"
           transform="matrix(288.00003,0,0,-310.00004,140.22948,1154.0005)"><image
             width="1"
             height="1"
             style="image-rendering:optimizeSpeed"
             preserveAspectRatio="none"
             transform="matrix(1,0,0,-1,0,1)"
             xlink:href="data:image/png;base64,iVBORw0KGgoAAAANSUhEUgAAAJAAAACbCAYAAACNgRJ7AAAABHNCSVQICAgIfAhkiAAAAgtJREFUeJzt1MFtwjAAQFEn7T6dput01W6Ce4AUgzhU/QeE9J6EAsZJ7Ogr25xzDvin/dkL4LW9jzHG+Ph83gq2Mca2vASP79vlM+b1uN/Pmdd52zzPOcb39fzL+L6cc4zvd/c4/t+Xa/5pbIyxnc7Ht/Wap+v6ftf0aOy45oM9rfda97PdP5P7c5fjvjzXm/0+eO6Pxg9f3zc/vYFIBEQiIBIBkQiIREAkAiIREImASAREIiASAZEIiERAJAIiERCJgEgERCIgEgGRCIhEQCQCIhEQiYBIBEQiIBIBkQiIREAkAiIREImASAREIiASAZEIiERAJAIiERCJgEgERCIgEgGRCIhEQCQCIhEQiYBIBEQiIBIBkQiIREAkAiIREImASAREIiASAZEIiERAJAIiERCJgEgERCIgEgGRCIhEQCQCIhEQiYBIBEQiIBIBkQiIREAkAiIREImASAREIiASAZEIiERAJAIiERCJgEgERCIgEgGRCIhEQCQCIhEQiYBIBEQiIBIBkQiIREAkAiIREImASAREIiASAZEIiERAJAIiERCJgEgERCIgEgGRCIhEQCQCIhEQiYBIBEQiIBIBkQiIREAkAiIREImASAREIiASAZEIiERAJAIiERCJgEgERCIgEgGRCIhEQCQCIhEQiYBIBEQiIBIBkQiIREAkAiLZ5pzz2Yvgdf0AtF48L75q4acAAAAASUVORK5CYII="
             id="image890" /></g></g></g></g></svg>
